website/static/img/icons/white/star.svg

<svg fill="none" height="27" viewBox="0 0 30 27" width="30" xmlns="http://www.w3.org/2000/svg"><path d="m7.10818 17.067-6.476467-5.1668c-.7258285-.5791-.843509-1.6353-.262846-2.35913.319393-.39814.802953-.62991 1.314233-.62991h8.489l3.2915-7.87787c.3575-.855642 1.3429-1.260264 2.2009-.903745.4098.17027.7355.495099.9063.903745l3.2915 7.87787h8.4547c.9295 0 1.683.75144 1.683 1.67844 0 .5369-.2576 1.0415-.6931 1.3573l-7.0576 5.1186 3.1661 7.5775c.3575.8557-.0483 1.8383-.9063 2.1949-.5194.2158-1.1127.1585-1.5809-.1528l-7.911-5.2595-7.96044 5.2923c-.7734.5142-1.81835.3058-2.33395-.4655-.28809-.4309-.36054-.9704-.1963-1.4617zm-1.49948-5.1042 5.0773 4.0506-1.98731 5.9453 6.31851-4.2007 5.8243 3.8722-2.3462-5.6153 5.5871-4.0521h-6.2601l-2.8051-6.71358-2.8051 6.71358z" fill="#fff"/></svg>

<svg width="30" height="27" viewBox="0 0 30 27" fill="none" xmlns="http://www.w3.org/2000/svg">
<path d="M7.10818 17.067L0.631713 11.9002C-0.0941155 11.3211 -0.211796 10.2649 0.368867 9.54107C0.68826 9.14293 1.17182 8.91116 1.6831 8.91116H10.1721L13.4636 1.03329C13.8211 0.177648 14.8065 -0.226974 15.6645 0.129545C16.0743 0.299815 16.4 0.624644 16.5708 1.03329L19.8623 8.91116H28.317C29.2465 8.91116 30 9.6626 30 10.5896C30 11.1265 29.7424 11.6311 29.3069 11.9469L22.2493 17.0655L25.4154 24.643C25.7729 25.4987 25.3671 26.4813 24.5091 26.8379C23.9897 27.0537 23.3964 26.9964 22.9282 26.6851L15.0172 21.4256L7.05676 26.7179C6.28336 27.2321 5.23841 27.0237 4.72281 26.2524C4.43472 25.8215 4.36227 25.282 4.52651 24.7907L7.10818 17.067ZM5.6087 11.9628L10.686 16.0134L8.69869 21.9587L15.0172 17.758L20.8415 21.6302L18.4953 16.0149L24.0824 11.9628H17.8223L15.0172 5.24922L12.2121 11.9628H5.6087Z" fill="white"/>
</svg>
